dist/images/icons/facebook-big.svg

<svg width="114" height="114" viewBox="0 0 114 114" fill="none" xmlns="http://www.w3.org/2000/svg">
<mask id="mask0_65_4303" style="mask-type:luminance" maskUnits="userSpaceOnUse" x="0" y="0" width="114" height="114">
<path d="M0 0H114V114H0V0Z" fill="white"/>
</mask>
<g mask="url(#mask0_65_4303)">
<path d="M17.1005 0H96.8995C97.4602 0 98.0182 0.0274884 98.5762 0.0824653C99.1329 0.137442 99.6868 0.218533 100.237 0.328487C100.785 0.437066 101.328 0.573134 101.864 0.73669C102.4 0.898871 102.926 1.08717 103.444 1.30158C103.961 1.51599 104.467 1.75514 104.96 2.01902C105.455 2.28291 105.935 2.57017 106.401 2.88216C106.865 3.19278 107.315 3.52676 107.748 3.88137C108.181 4.23734 108.596 4.61256 108.992 5.00839C109.387 5.40422 109.763 5.8193 110.119 6.25224C110.473 6.68519 110.807 7.13462 111.118 7.59918C111.43 8.0651 111.717 8.54478 111.981 9.03957C112.245 9.53299 112.484 10.0388 112.698 10.5556C112.913 11.0737 113.101 11.6001 113.263 12.1361C113.427 12.6722 113.562 13.2151 113.672 13.7635C113.78 14.3132 113.863 14.8657 113.918 15.4238C113.973 15.9818 114 16.5398 114 17.0992V96.8995C114 97.4602 113.973 98.0182 113.918 98.5762C113.863 99.1329 113.78 99.6868 113.672 100.237C113.562 100.785 113.427 101.328 113.263 101.864C113.101 102.4 112.913 102.926 112.698 103.443C112.484 103.961 112.245 104.467 111.981 104.96C111.717 105.455 111.43 105.935 111.118 106.399C110.807 106.865 110.473 107.315 110.119 107.748C109.763 108.181 109.387 108.596 108.992 108.992C108.596 109.387 108.181 109.763 107.748 110.119C107.315 110.473 106.865 110.807 106.401 111.118C105.935 111.428 105.455 111.717 104.96 111.981C104.467 112.245 103.961 112.484 103.444 112.698C102.926 112.913 102.4 113.101 101.864 113.263C101.328 113.425 100.785 113.562 100.237 113.672C99.6868 113.78 99.1329 113.863 98.5762 113.918C98.0182 113.973 97.4602 114 96.8995 114H17.1005C16.5398 114 15.9818 113.973 15.4238 113.918C14.8671 113.863 14.3132 113.78 13.7635 113.672C13.2151 113.562 12.6722 113.425 12.1361 113.263C11.6001 113.101 11.0737 112.913 10.5556 112.698C10.0388 112.484 9.53299 112.245 9.03957 111.981C8.54478 111.717 8.0651 111.428 7.59918 111.118C7.13462 110.807 6.68519 110.473 6.25224 110.119C5.8193 109.763 5.40422 109.387 5.00839 108.992C4.61256 108.596 4.23734 108.181 3.88137 107.748C3.52677 107.315 3.19278 106.865 2.88216 106.399C2.57017 105.935 2.28291 105.455 2.01902 104.96C1.75514 104.467 1.51599 103.961 1.30158 103.443C1.08717 102.926 0.898872 102.4 0.73669 101.864C0.573134 101.328 0.43844 100.785 0.328487 100.237C0.219907 99.6868 0.137442 99.1329 0.0824653 98.5762C0.0274884 98.0182 0 97.4602 0 96.8995V17.0992C0 16.5398 0.0274884 15.9818 0.0824653 15.4238C0.137442 14.8657 0.219907 14.3132 0.328487 13.7635C0.43844 13.2151 0.573134 12.6722 0.73669 12.1361C0.898872 11.6001 1.08717 11.0737 1.30158 10.5556C1.51599 10.0388 1.75514 9.53299 2.01902 9.03957C2.28291 8.54478 2.57017 8.0651 2.88216 7.59918C3.19278 7.13462 3.52677 6.68519 3.88137 6.25224C4.23734 5.8193 4.61256 5.40422 5.00839 5.00839C5.40422 4.61256 5.8193 4.23734 6.25224 3.88137C6.68519 3.52676 7.13462 3.19278 7.59918 2.88216C8.0651 2.57017 8.54478 2.28291 9.03957 2.01902C9.53299 1.75514 10.0388 1.51599 10.5556 1.30158C11.0737 1.08717 11.6001 0.898871 12.1361 0.73669C12.6722 0.573134 13.2151 0.437066 13.7635 0.328487C14.3132 0.218533 14.8671 0.137442 15.4238 0.0824653C15.9818 0.0274884 16.5398 0 17.1005 0Z" fill="#3B5998"/>
</g>
<path d="M63.9023 101.531V34.957C63.9023 30.2812 65.2383 27.1641 71.6953 27.1641H80.1562V13.1367C78.5977 12.9141 73.6992 12.4688 67.9102 12.4688C55.8867 12.4688 47.6484 19.8164 47.6484 33.3984V101.531M79.4883 44.9766H33.8438V61.0078H77.4844" fill="white"/>
</svg>

<svg width="114" height="114" fill="none" xmlns="http://www.w3.org/2000/svg"><mask id="mask0_65_4303" style="mask-type:luminance" maskUnits="userSpaceOnUse" x="0" y="0" width="114" height="114"><path d="M0 0h114v114H0V0z" fill="#fff"/></mask><g mask="url(#mask0_65_4303)"><path d="M17.1 0h79.8a17.076 17.076 0 018.06 2.019c.495.264.975.551 1.441.863a17.281 17.281 0 013.718 3.37c.354.433.688.883.999 1.347a16.995 16.995 0 012.145 4.537A16.961 16.961 0 01114 17.1v79.8a17.069 17.069 0 01-2.882 9.5c-.311.466-.645.916-.999 1.349-.356.433-.732.848-1.127 1.244-.396.395-.811.771-1.244 1.127-.433.354-.883.688-1.347.999a17.309 17.309 0 01-2.957 1.58 16.78 16.78 0 01-1.58.565c-.536.162-1.079.299-1.627.409A17.069 17.069 0 0196.9 114H17.1a17.069 17.069 0 01-8.06-2.019 17.32 17.32 0 01-2.788-1.862 17.281 17.281 0 01-3.37-3.72 16.951 16.951 0 01-2.145-4.535A17.09 17.09 0 010 96.9V17.1a17.07 17.07 0 011.302-6.544 17.147 17.147 0 013.706-5.548A17.256 17.256 0 017.6 2.882 17.147 17.147 0 0113.763.328 16.958 16.958 0 0117.102 0z" fill="#3B5998"/></g><path d="M63.902 101.531V34.957c0-4.676 1.336-7.793 7.793-7.793h8.461V13.137c-1.558-.223-6.457-.668-12.246-.668-12.023 0-20.262 7.347-20.262 20.93v68.132m31.84-56.554H33.844v16.03h43.64" fill="#fff"/></svg>
